X:29
T:Concerto Grosso Op.6 No.1 - Largo
C:Handel, G.F.
M:3/4
L:1/8
Q:1/4=56
K:G
|:B2|g4 fg|a2 gf e2|f4 ef|g2 fe d2|
e4 de|f2 ed c2|d2 ef ga|g4:|

